src/assets/icons/oracle.svg

<svg fill="none" height="14" viewBox="0 0 96 14" width="96" xmlns="http://www.w3.org/2000/svg"><path clip-rule="evenodd" d="m42.6211.976902c-.5977 0-1.5938.199218-2.0508.996088l-6.3515 11.00391 3.457.0234 4.9336-8.54293 2.3437 4.03125-4.5-.01172 1.7578 2.9883 4.4766.0234.8437 1.4883h3.4688l-6.375-11.03906c-.6445-1.007814-1.4883-.960938-2.0039-.960938zm14.1445 0c-3.1875 0-5.7656 2.683598-5.7656 5.999998s2.5781 6 5.7656 6l6.2344.0469 3-3.0469-9.2695.0234c-1.6875-.0234-2.6953-1.62887-2.7305-3.01168-.0469-1.48828 1.0781-3.04688 2.7539-3.07031l6.2461.08203 3-3.023438zm-50.7656.023438c-3.17578 0-6 2.84765-6 6.16406 0 3.3164 2.82422 5.8359 6 5.8359h6c3.1758 0 6-2.6836 6-5.99996 0-3.31641-2.8242-6-6-6zm15 0v11.99996h3v-8.99996h3.8438c1.1367-.01172 2.1562.41015 2.1562 1.48828 0 1.0664-.9961 1.52344-2.0156 1.52344l-3.9844-.01172 5.0859 6.02346 3.9141-.0235-3.0703-3.60934s3.0469-.89062 3.0703-3.94922c.0117-2.53125-1.5234-4.41796-4.1016-4.4414zm51 0h-3v10.85156c0 .293.1055.5859.3281.8086.1992.2109.4922.3398.7969.3398l7.875.0235 3-3.0235h-9zm14.4023.02344c-3.1875 0-5.7656 2.68359-5.7656 5.99999 0 3.31643 2.5781 6.00003 5.7656 6.00003h6.5977l3-3h-9.6445c-.7266.082-2.0977-.52737-2.4375-1.81643l9.082.10547 2.9648-2.73047s-8.9296.04687-12 .05859c.2813-1.38281 2.3907-1.61718 2.3907-1.61718h6.6445l3-3zm-80.4023 2.97656h6c.5977.01171 2.7305.91406 2.7188 2.98828-.0118 2.25-1.9571 3-2.7188 3.01168h-6c-1.37109-.01168-2.76562-1.59371-2.76562-2.95309 0-1.6875 1.59374-3.07031 2.76562-3.04687z" fill="#000" fill-rule="evenodd"/></svg>

<svg width="96" height="14" viewBox="0 0 96 14" fill="none" xmlns="http://www.w3.org/2000/svg">
<path fill-rule="evenodd" clip-rule="evenodd" d="M42.6211 0.976902C42.0234 0.976902 41.0273 1.17612 40.5703 1.97299L34.2188 12.9769L37.6758 13.0003L42.6094 4.45737L44.9531 8.48862L40.4531 8.4769L42.2109 11.4652L46.6875 11.4886L47.5312 12.9769H51L44.625 1.93784C43.9805 0.930026 43.1367 0.976902 42.6211 0.976902ZM56.7656 0.976902C53.5781 0.976902 51 3.6605 51 6.9769C51 10.2933 53.5781 12.9769 56.7656 12.9769L63 13.0238L66 9.9769L56.7305 10.0003C55.043 9.9769 54.0352 8.37143 54 6.98862C53.9531 5.50034 55.0781 3.94174 56.7539 3.91831L63 4.00034L66 0.976902H56.7656ZM6 1.00034C2.82422 1.00034 0 3.84799 0 7.1644C0 10.4808 2.82422 13.0003 6 13.0003H12C15.1758 13.0003 18 10.3167 18 7.00034C18 3.68393 15.1758 1.00034 12 1.00034H6ZM21 1.00034V13.0003H24V4.00034H27.8438C28.9805 3.98862 30 4.41049 30 5.48862C30 6.55502 29.0039 7.01206 27.9844 7.01206L24 7.00034L29.0859 13.0238L33 13.0003L29.9297 9.39096C29.9297 9.39096 32.9766 8.50034 33 5.44174C33.0117 2.91049 31.4766 1.02378 28.8984 1.00034H21ZM72 1.00034H69V11.8519C69 12.1449 69.1055 12.4378 69.3281 12.6605C69.5273 12.8714 69.8203 13.0003 70.125 13.0003L78 13.0238L81 10.0003H72V1.00034ZM86.4023 1.02378C83.2148 1.02378 80.6367 3.70737 80.6367 7.02377C80.6367 10.3402 83.2148 13.0238 86.4023 13.0238H93L96 10.0238H86.3555C85.6289 10.1058 84.2578 9.49643 83.918 8.20737L93 8.31284L95.9648 5.58237C95.9648 5.58237 87.0352 5.62924 83.9648 5.64096C84.2461 4.25815 86.3555 4.02378 86.3555 4.02378H93L96 1.02378H86.4023ZM6 4.00034H12C12.5977 4.01205 14.7305 4.9144 14.7188 6.98862C14.707 9.23862 12.7617 9.98862 12 10.0003H6C4.62891 9.98862 3.23438 8.40659 3.23438 7.04721C3.23438 5.35971 4.82812 3.9769 6 4.00034Z" fill="black"/>
</svg>
